!!!ONB: MCCC : IJH0449_03 : Extracted Monophonic Melody
!!!COM: Haydn, Joseph
!!!OPR: String Quartet in E-flat major
!!!OMV: 3
!!!SCT: Hob.III:71 ; Op.71 No.3
!!!ODT: 1793///
**kern
*thru
*k[b-e-a-]
*E-:
*clefF
*M3/4
8b-
8a
=1
8cc
8b-
8a-
8g
8f
8e-
=2
4d
4d
8b-
8d
=3
4e-
4e-
8ee-
8a
=4
4b-
4b-
4r
=5
4r
4dd
4ee-
=6
4ff
4ff
4r
=7
4r
4ff
4gg
=8
4aa-
4aa-
8ff
8dd
=9
4gg
4gg
8ee-
8cc
=10
4bb-
4bb-
8gg
8ee
=11
4ff
8dd
8b-
8cc
8a
=12
4b-
4r
8b-
8a
=13
8cc
8b-
8dd
8cc
8ee-
8dd
=14
4ff
4ff
8dd
8b-
=15
4ee-
4ee-
8cc
8a
=16
4b-
4b-
8.b-
16b-
=17
2b-
8cc
8dd
=18
4ee-
4ee-
8.ee-
16ee-
=19
2ee-
8ff
8gg
=20
4aa-
4aa-
8cc
8b-
=21
8dd-
8cc
8b-
8a-
8cc
8b-
=22
8a-
8g
8gg
8ff#
8gg
8dd
=23
8ee-
8b
8cc
8g
8a-
8cc
=24
2e-
4f
=25
4e-
4r
8b-
8a
=26
8cc
8b-
8a-
8g
8f
8e-
=27
4d
4d
8b-
8a
=28
8cc
8b-
8a-
8g
8f
8e-
=29
4d
4d
8b-
8a
=30
8cc
8b-
8a-
8g
8f
8e-
=31
8d-
8c
8d-
8b-
8g
8d-
=32
8c
8e
8f
8cc
8a-
8f
=33
2e-
4f
=34
4e-
2r
=35
2r
8dd
8ee-
=36
8gg
8ff
8ee-
8dd
8cc
8b-
=37
4ee-
4r
8dd
8ee-
=38
8ee
8ff
8gg
8aa-
8ff
8dd
=39
4ee-
4r
8dd
8ee-
=40
8ff
8ee-
8ff
8gg
8aa-
8bb-
=41
8ccc
8bb
8ccc
8gg
8aa-
8ff
=42
2ee-
4ff
=43
4ee-
4r
8b-
8a
=44
8cc
8b-
8a-
8g
8f
8e-
=45
4d
4d
8b-
8d
=46
4e-
4e-
8b-
8d
=47
4e-
2r
=48
2.r
=49
2.r
=50
2.r
=51
2.r
=52
2.r
=53
2r
4bb-
=54
2ff
8ee-
16dd
16ee-
=55
4dd
4ff
4b-
=56
2.a-
=57
4g
4ee-
8dd
8cc
=58
2b-
4cc
=59
4b-
4r
4bb-
=60
4ff
4r
4ddd
=61
4bb-
4r
4fff
=62
4ddd
4bbb-
4bbb-
=63
4bbb-
4r
4b-
=64
2f
8e-
16d
16e-
=65
4d
4f
8e-
16d
16e-
=66
4d
4f
8e-
16d
16e-
=67
4f
4a-
8g
16f
16g
=68
4a-
8cc
8b-
8a-
8g
=69
4g
4f
4r
=70
2.r
=71
2r
4eee-
=72
2bb-
8aa-
16gg
16aa-
=73
4gg
4bb-
4ee-
=74
2.dd-
=75
4cc
4ee-
4cc
=76
4b-
4ee-
4b-
=77
2a-
4g
=78
8f
16e
16f
4a-
4d
=79
4e-
4r
4ee-
=80
4b-
4r
4gg
=81
4ee-
4r
4bb-
=82
4eee-
4bb-
4ggg
=83
4eee-
2r
==
*-
